X: 3182
T: Bee In The Knickers, The
R: jig
M: 6/8
K: Gmajor
|:c|BGG GED|ECC G2E|FDD ADD|FDD ABc|
BGG GED|ECC G2E|FDD cAF|GBA G2:|
|:B|dGG B2G|ECC G2E|FDD ADD|FDD ABc|
dGG B2G|ECC G2E|FDD cAF|GBA G2:|
|:E|DGD EDG|ECC G2E|FDD ADD|FDD ABc|
DGD EDG|ECC G2E|FDD cAF|GBA G2:|
|:B|dGG B2G|ECC G2E|DEF A2D|DEF ABc|
dGG B2G|ECC G2E|FDD cAF|GBA G2:|

